X: 3187
T: Beeches Of Bregagh, The
R: reel
M: 4/4
K: Amajor
EFAB ceea|effe fgag|fece faea|f/g/aec BAcB|
AFEF ABce|effe fgag|fece f/g/aec|1 BABc A2FA:|2 BABc ABce||
aA (3AAA g2ge|fgaf (3efe ce|afec fecA|BABc ecBE|
EFAB ceea|effe fgab|afec ABcA|1 BABc ABce:|2 BABc A4||

